!!!OTL: ZUFRIEDENHEIT IST MEIN VERGNUEGEN
!!!ARE: Europa, Mitteleuropa, Deutschland, Bergisches Land
!!!SCT: E1804
!!!YEM: Copyright 1995, estate of Helmut Schaffrath.
**kern
*ICvox
*Ivox
*M4/4
*k[b-e-]
*B-:
{4f
=1
4.b-
8f
8d
8b-
8g
8g
=2
4g
4f
4r}
{4b-
=3
8a
8b-
8cc
8dd
4ee-
4cc
=4
4cc
4b-
4r}
{4a
=5
4.cc
8dd
8cc
8b-
8a
8g
=6
2f
4r}
{4f
=7
8d
8b-
8d
8f
4b-
4b-
=8
8dd
8dd
8dd
8dd
4ee-
4cc
=9
2b-
4r}
==
!!!AGN: Moral - Lied
!!!ONB: ESAC (Essen Associative Code) Database: ERK3
!!!AMT: simple quadruple
!!!AIN: vox
!!!EED: Helmut Schaffrath
!!!EEV: 1.0
*-
